X:207
%%topspace -50
%%musicspace -10
T:Up Jumped the Devil
M:4/4
L:1/8
K:A
"A"e2 ee f2 f2 | a2 a2 f2 e2 | e2 a2 f2 e2 | "E7"g6 e2 | 
egbe gbeg | begb g2 e2 | gfeg fefB | "A"e6 e2 | 
"A"ecec fcfc | acac f2 e2 | e2 a2 e2 a2 | "D"f6 a2 | 
a3 b a2 f2 | "A"e3 f e2 ef | "E7" gfed c2 B2 | "A"A8 ||
"A"E2 AA E2 AA | "D"F2 AA "A" E2 E2 | E2 AA E2 AA | "E7"B2 e2 e4 | 
BBee BeBB | eBBe e2 ef | gfeg fedB | "A"ABAF E2 E2 | 
"A"E2 AA E2 AA | "D"F2 AA "A" E2 E2 | E2 AA E2 AA | "D"F6 a2 | 
a3 b a2 f2 | "A"e3 f e2 f2 | "E7"gfed c2 B2 | "A"A8 |]

